icons/folder-history-fill.svg

<svg xmlns="http://www.w3.org/2000/svg" width="24" height="24" fill="none"><g clip-path="url(#a)"><g><path fill="#121212" d="M10.414 3L12.414 5H21C21.552 5 22 5.448 22 6V20C22 20.552 21.552 21 21 21H3C2.448 21 2 20.552 2 20V4C2 3.448 2.448 3 3 3H10.414ZM13 9H11V15H16V13H13V9Z"/></g></g><defs><clipPath id="a"><rect width="24" height="24" fill="white"/></clipPath></defs></svg>

<svg width="24" height="24" fill="none" xmlns="http://www.w3.org/2000/svg"><g clip-path="url(#a)"><path d="m10.414 3 2 2H21a1 1 0 0 1 1 1v14a1 1 0 0 1-1 1H3a1 1 0 0 1-1-1V4a1 1 0 0 1 1-1h7.414ZM13 9h-2v6h5v-2h-3V9Z" /></g><defs><clipPath id="a"><path fill="#fff" d="M0 0h24v24H0z"/></clipPath></defs></svg>
